X: 12108
T: Evacuation Day
R: reel
M: 4/4
K: Amajor
|:A2ed cA (3AAA|GABc dfed|cAgA a3g|fe (3eee fecA|
[1 F2AF GFFE|F2AB c2BA|FDdD c2BA|FAde B2AG:|
[2 F2AF GFFE|F2ED FEEA|D2AD f2ec|B2AG A2 EC||
|:A,2EA, B,2F2-|FEFA FE (3EEE|F2AB c3A|FEFd c2BA|
GAAG (3eee ce|Aeag feea|1 gaea f2ec|B2AG A2EC:|2 d2ef f2ec|B2AG A4||

